public/img/icons/prize3-label.svg

<svg width="21" height="19" viewBox="0 0 21 19" fill="none" xmlns="http://www.w3.org/2000/svg">
<path d="M17.7144 4.76575L16.7144 4.76575L16.7144 3.76575C16.7144 2.9701 16.3983 2.20704 15.8357 1.64443C15.2731 1.08182 14.51 0.765747 13.7144 0.765747L3.71436 0.765747C2.91871 0.765747 2.15564 1.08182 1.59304 1.64443C1.03043 2.20704 0.714355 2.9701 0.714355 3.76575L0.714355 15.7657C0.714355 16.5614 1.03043 17.3245 1.59303 17.8871C2.15564 18.4497 2.91871 18.7657 3.71435 18.7657L17.7144 18.7657C18.51 18.7657 19.2731 18.4497 19.8357 17.8871C20.3983 17.3245 20.7144 16.5614 20.7144 15.7657L20.7144 7.76575C20.7144 6.9701 20.3983 6.20704 19.8357 5.64443C19.2731 5.08182 18.51 4.76575 17.7144 4.76575ZM3.71436 2.76575L13.7144 2.76575C13.9796 2.76575 14.2339 2.8711 14.4215 3.05864C14.609 3.24618 14.7144 3.50053 14.7144 3.76575L14.7144 4.76575L3.71436 4.76575C3.44914 4.76575 3.19478 4.66039 3.00725 4.47285C2.81971 4.28532 2.71436 4.03096 2.71436 3.76575C2.71436 3.50053 2.81971 3.24618 3.00725 3.05864C3.19479 2.8711 3.44914 2.76575 3.71436 2.76575ZM18.7144 12.7657L17.7144 12.7657C17.4491 12.7657 17.1948 12.6604 17.0072 12.4729C16.8197 12.2853 16.7144 12.031 16.7144 11.7657C16.7144 11.5005 16.8197 11.2462 17.0072 11.0586C17.1948 10.8711 17.4491 10.7657 17.7144 10.7657L18.7144 10.7657L18.7144 12.7657ZM18.7144 8.76575L17.7144 8.76575C16.9187 8.76575 16.1556 9.08182 15.593 9.64443C15.0304 10.207 14.7144 10.9701 14.7144 11.7657C14.7144 12.5614 15.0304 13.3245 15.593 13.8871C16.1556 14.4497 16.9187 14.7657 17.7144 14.7657L18.7144 14.7657L18.7144 15.7657C18.7144 16.031 18.609 16.2853 18.4215 16.4729C18.2339 16.6604 17.9796 16.7657 17.7144 16.7657L3.71435 16.7657C3.44914 16.7657 3.19478 16.6604 3.00725 16.4729C2.81971 16.2853 2.71435 16.031 2.71435 15.7657L2.71436 6.59575C3.03562 6.70876 3.37379 6.76625 3.71435 6.76575L17.7144 6.76575C17.9796 6.76575 18.2339 6.8711 18.4215 7.05864C18.609 7.24618 18.7144 7.50053 18.7144 7.76575L18.7144 8.76575Z" fill="#4348BF"/>
</svg>

<svg width="21" height="19" fill="none" xmlns="http://www.w3.org/2000/svg"><path d="M17.714 4.766h-1v-1a3 3 0 0 0-3-3h-10a3 3 0 0 0-3 3v12a3 3 0 0 0 3 3h14a3 3 0 0 0 3-3v-8a3 3 0 0 0-3-3Zm-14-2h10a1 1 0 0 1 1 1v1h-11a1 1 0 1 1 0-2Zm15 10h-1a1 1 0 1 1 0-2h1v2Zm0-4h-1a3 3 0 1 0 0 6h1v1a1 1 0 0 1-1 1h-14a1 1 0 0 1-1-1v-9.17a3 3 0 0 0 1 .17h14a1 1 0 0 1 1 1v1Z" fill="#4348BF"/></svg>
